!!!COM: Music21
!!!OTL: Amor Rianxeiro
!!!OMV: pezas_foliadas_amor-rianxeiro_amor-rianxeiro-partitura.musicxml
**kern
*part1
*staff1
*I"Bagpipes
*I'Bag
*clefG^2
*ITrd1c2
*k[b-e-]
*M2/4
=1
!LO:TX:a:t=Moderato
*MM112
!LO:TX:a:t=[quarter]=112
2bb-
=
4aa
4ff
=
4gg
[4aa
=
8.aaL]
16ggMJk
[4ff
=
2ff_
=
4ff]
[4bb-
=
4bb-]
4aa
=
4ff
4gg
=
4aa
4ff
=
[4gg
8.ggL]
16ffMJk
=
[2ee-
=
2ee-]
!!linebreak:original
=
2bb-
=
4aa
4ff
=
4gg
4aa
!!linebreak:original
=
4bb-
[4aa
=
8.aaL]
16ggMJk
[4ff
=
4ff]
4gg
=
4aa
[4gg
=
8.ggL]
16ffMJk
[4ee-
=
4ee-]
4ff
=
4gg
[4ff
=
8.ffL]
16ee-MJk
[4dd
=
2dd_
=
4dd]
[4bb-
=
4bb-]
4aa
=
4ff
4gg
!!linebreak:original
=
4aa
4bb-
!!linebreak:original
=
[4aa
8.aaL]
16ggMJk
=
2ff
=
4gg
4aa
=
[4gg
8.ggL]
16ffMJk
=
2ee-
=
4ff
4gg
=
[4ff
8.ffL]
16ee-MJk
=
[2dd
=||
*M3/4
!LO:TX:a:t=Presto
*MM184
!LO:TX:a:t=[quarter]=184
8dd]
8r
8ffL
8ee-J
8ddL
8ee-J
=||
4ff
4dd
4ff
!!pagebreak:original
=
4ff
4.aa
8ff
!!linebreak:original
=
4.gg
8ff
[4ee-
=
4ee-]
8ee-L
8ddJ
8ccL
8ddJ
=
4ee-
4cc
4dd
=
4ee-
4.gg
8ee-
=
4.ff
8ee-
[4dd
=
4dd]
8ffL
8ee-J
8ddL
8ee-J
=||
4ff
4dd
4ff
=
4ff
4.aa
8ff
!!linebreak:original
=
4.gg
8ff
[4ee-
=
4ee-]
8ee-L
8ddJ
8ccL
8ddJ
=
4ee-
4cc
4dd
=
4ee-
4.gg
8ee-
=
4.ff
8ee-
[4dd
=
2dd]
4ff
!!linebreak:original
=
4aa
4r
4ff
=
4ff
4.gg
8ff
=
4ee-
[2dd
=
2.dd]
=||
4ff
4ff
4ff
=
4ff
4gg
4aa
=
2.bb-
=
2bb-
4gg
=
4bb-
4r
4gg
=
4gg
4.aa
8gg
=
4ff
[2ee-
!!linebreak:original
=
2.ee-]
!!pagebreak:original
=
4ee-
4ee-
4ee-
=
4ee-
4ff
4gg
=
2.aa
=
2aa
4ff
=
4aa
4r
4ff
=
4ff
4.gg
8ff
=
4ee-
[2dd
=
2.dd]
=||
4ff
4ff
4ff
=
4ff
4gg
4aa
=
2.bb-
=
2bb-
4gg
!!linebreak:original
=
4bb-
4r
4gg
=
4gg
4.aa
8gg
=
4ff
[2ee-
=
2.ee-]
!!pagebreak:original
=
4ee-
4ee-
4ee-
=
4ee-
4ff
4gg
=
2.aa
=
2aa
4ff
=
4aa
4r
4ff
=
4ff
4.gg
8ff
=
4ee-
[2dd
=
2dd]
8ffL
8ffJ
=||
4ff
4dd
8ggL
8ggJ
!!linebreak:original
=
4gg
4ee-
8aaL
8aaJ
=
4aa
4gg
4aa
=
2ff
8ggL
8ggJ
=||
4gg
4ff
4gg
=
4ee-
4ee-
8ffL
8ffJ
=
4ff
4ee-
4ff
=
2dd
8ffL
8ffJ
=||
4ff
4dd
8ggL
8ggJ
!!linebreak:original
=
4gg
4ee-
8aaL
8aaJ
=
4aa
4gg
4aa
=
2ff
8ggL
8ggJ
=||
4gg
4ff
4gg
=
4ee-
4ee-
8ffL
8ffJ
=
4ff
4ee-
4ff
=
[2.dd
=
4dd]
8ffL
8ee-J
8ddL
8ee-J
=||
4ee-
[2ee-
!!linebreak:original
=
!LO:TX:a:t=Maestoso
*MM72
!LO:TX:a:t=[quarter]=72
2ee-]
8ffL
8ffJ
=
4ff
4gg
4aa
=
[2.bb-
=
8bb-]
8r
2r
==
*-
!!!system-decoration: s1,s2
